X:1
T: Lady Maxwell's Reel
C:
R:Jig
Q:180
K:C
M:6/8
L:1/16
e2|c6 G2E2G2|G2E2G2 c2G2E2|c6 G2c2e2|d2D2D2 D4e2|
c2e2c2 G2E2G2|G2E2G2 c2G2E2|F2d2F2 E2c2E2|d2D2D2 D4|
|:e2|c2e2g2 e2g2c'2|a2f2a2 g2e2g2|c2e2g2 c'2g2e2|f2d2d2 d4e2|
c2e2c2 g2e2g2|c'2g2c'2 a2f2a2|g2e2g2 f2d2f2|e2c2c2 c4e2|
c2e2g2 e2g2c'2|a2f2a2 g2e2g2|c2e2g2 c'2g2e2|f2d2d2 d4e2|
c3de2 d2B2G2|A3Bc2 G2E2c2|D2E2F2 G2g2f2|e2d2d2 d4:|
